frontend/public/assets/material-icons/rubocop.svg

<svg xmlns="http://www.w3.org/2000/svg" viewBox="0 0 32 32"><path fill="#b0bec5" d="M22 24a2 2 0 0 1-2 2h-2l-1-2h-2l-1 2h-2a2 2 0 0 1-2-2v-2H8v2a4 4 0 0 0 4 4h8a4 4 0 0 0 4-4v-2h-2Z"/><path fill="#b0bec5" d="M20 24v-2h-8v2h1v-1h6v1zm6.5-10H26a2 2 0 0 0-2-2H8a2 2 0 0 0-2 2h-.5a.5.5 0 0 0-.5.5v3a.5.5 0 0 0 .5.5H6a2 2 0 0 0 2 2h16a2 2 0 0 0 2-2h.5a.5.5 0 0 0 .5-.5v-3a.5.5 0 0 0-.5-.5"/><path fill="#E53935" d="M8 15h16v2H8z" data-mit-no-recolor="true"/><path fill="#b0bec5" d="M23.738 10a7.99 7.99 0 0 0-15.476 0Z"/></svg>

<svg xmlns="http://www.w3.org/2000/svg" viewBox="0 0 32 32">
  <path d="M22,24a2,2,0,0,1-2,2H18l-1-2H15l-1,2H12a2,2,0,0,1-2-2V22H8v2a4,4,0,0,0,4,4h8a4,4,0,0,0,4-4V22H22Z" style="fill: #b0bec5"/>
  <polygon points="20 24 20 22 12 22 12 24 13 24 13 23 19 23 19 24 20 24" style="fill: #b0bec5"/>
  <path d="M26.5,14H26a2,2,0,0,0-2-2H8a2,2,0,0,0-2,2H5.5a.5.5,0,0,0-.5.5v3a.5.5,0,0,0,.5.5H6a2,2,0,0,0,2,2H24a2,2,0,0,0,2-2h.5a.5.5,0,0,0,.5-.5v-3A.5.5,0,0,0,26.5,14Z" style="fill: #b0bec5"/>
  <rect x="8" y="15" width="16" height="2" style="fill: #d7252c"/>
  <path d="M23.73779,10A7.98945,7.98945,0,0,0,8.26221,10Z" style="fill: #b0bec5"/>
</svg>
